assets/images/full-cert-logo.svg

<?xml version="1.0" encoding="utf-8"?>
<!-- Generator: Adobe Illustrator 26.0.1, SVG Export Plug-In . SVG Version: 6.00 Build 0)  -->
<svg version="1.1" id="Layer_1" xmlns="http://www.w3.org/2000/svg" xmlns:xlink="http://www.w3.org/1999/xlink" x="0px" y="0px"
	 viewBox="0 0 1617.9 348.5" style="enable-background:new 0 0 1617.9 348.5;" xml:space="preserve">
<style type="text/css">
	.st0{fill:white;}
	.st1{fill:none;stroke:white;stroke-width:20.5666;stroke-linecap:round;stroke-linejoin:round;}
	.st2{fill:none;stroke:white;stroke-width:20.5666;stroke-linecap:round;stroke-linejoin:round;stroke-dasharray:0,62.4177;}
	.st3{fill:none;stroke:white;stroke-width:20.5666;stroke-linecap:round;stroke-linejoin:round;}
	.st4{fill:none;stroke:white;stroke-width:20.5666;stroke-linecap:round;stroke-linejoin:round;stroke-dasharray:0,62.4177;}
	.st5{fill:none;stroke:white;stroke-width:20.5666;stroke-linecap:round;stroke-linejoin:round;}
	.st6{fill:none;stroke:white;stroke-width:20.5666;stroke-linecap:round;stroke-linejoin:round;stroke-dasharray:0,62.4177;}
	.st7{display:none;fill:white;}
	.st8{fill:white !important;}
	.st9{fill:none;stroke:white;stroke-width:10;stroke-linecap:round;stroke-linejoin:round;}
	.st10{fill:none;stroke:white;stroke-width:10;stroke-linecap:round;stroke-linejoin:round;stroke-dasharray:0,47.8246;}
	.st11{fill:none;stroke:white;stroke-width:10;stroke-linecap:round;stroke-linejoin:round;stroke-dasharray:0,50.9333;}
	.st12{fill:white;}
	.st13{fill:none;stroke:white;stroke-width:10;stroke-linecap:round;stroke-linejoin:round;stroke-dasharray:0,48.9885;}
	.st14{fill:none;stroke:white;stroke-width:12.3715;stroke-linecap:round;stroke-linejoin:round;stroke-miterlimit:10;}
	.st15{fill:none;stroke:white;stroke-width:10;stroke-linecap:round;stroke-linejoin:round;stroke-dasharray:0,52.811;}
	.st16{fill:white;}
	.st17{fill:white;}
	.st18{fill:white;}
	.st19{fill:white;}
	.st20{fill:white;}
	.st21{fill:white;}
	.st22{opacity:0.26;fill:white;}
	.st23{fill:white;}
	.st24{fill:white;}
	.st25{fill:white;}
	.st26{fill:white;}
	.st27{fill:white;}
	.st28{fill:white;}
	.st29{fill:white;}
	.st30{fill:white;}
	.st31{fill:white;}
	.st32{opacity:0.42;}
	.st33{fill:white;stroke:white;stroke-width:9.5664;stroke-linecap:round;stroke-linejoin:round;stroke-miterlimit:10;}
	.st34{fill:white;}
	.st35{fill:none;stroke:white;stroke-width:7.5134;stroke-miterlimit:10;}
	.st36{fill:white;stroke:white;stroke-width:8.2987;stroke-linejoin:bevel;stroke-miterlimit:10;}
	
		.st37{fill-rule:evenodd;clip-rule:evenodd;fill:white;stroke:white;stroke-width:8.8772;stroke-linejoin:bevel;stroke-miterlimit:10;}
	.st38{fill:white;stroke:white;stroke-width:6.2548;stroke-linejoin:bevel;stroke-miterlimit:10;}
	.st39{fill:none;stroke:white;stroke-width:10;stroke-linecap:round;stroke-linejoin:round;stroke-miterlimit:10;}
	.st40{fill:none;stroke:white;stroke-width:6.2548;stroke-linejoin:bevel;stroke-miterlimit:10;}
	.st41{fill:none;stroke:white;stroke-width:8.2987;stroke-linejoin:bevel;stroke-miterlimit:10;}
	.st42{fill:white;}
</style>
<polygon class="st20" points="190.6,136.3 261.9,178.7 267,170.1 200.3,130.5 267.1,90.4 261.9,81.9 188,126.2 114,170.6 
	116.6,174.9 114,179.2 188,223.1 188.1,222.9 261.9,266.7 267,258.1 193.1,214.2 193,214.4 126.4,174.9 "/>
<g>
	<circle class="st21" cx="117.2" cy="175" r="27.3"/>
</g>
<g>
	<circle class="st21" cx="190.5" cy="218.5" r="27.3"/>
</g>
<g>
	<circle class="st21" cx="263.9" cy="262" r="27.3"/>
</g>
<g>
	<circle class="st21" cx="190.5" cy="130.5" r="27.3"/>
</g>
<g>
	<circle class="st21" cx="263.9" cy="86.5" r="27.3"/>
</g>
<g>
	<circle class="st21" cx="264.7" cy="174.5" r="27.3"/>
</g>
<circle class="st20" cx="879" cy="78.2" r="16"/>
<circle class="st20" cx="1262.7" cy="78.2" r="16"/>
<path class="st20" d="M479.2,218.7c-1.8,1.1-3.7,2.1-6,3c-2.2,0.9-4.8,1.7-7.8,2.5c-2.9,0.8-6.3,1.2-10.1,1.2
	c-7.2,0-13.4-1.3-18.7-3.8c-5.3-2.5-9.7-6-13.2-10.3c-3.5-4.3-6.1-9.4-7.9-15.2c-1.7-5.8-2.6-11.8-2.6-18.1c0-9.6,0.8-17.7,2.4-24.4
	c1.6-6.6,4-11.9,7.2-15.9c3.2-3.9,7.1-6.8,11.7-8.5c4.6-1.7,10-2.6,16-2.6c7.2,0,11.9,0.7,14.3,2.1v22.4h21.4v-30.9
	c-4.8-2.4-10-4.1-15.7-5.2c-5.7-1.1-12.9-1.7-21.6-1.7c-19.2,0-34.4,5.6-45.5,16.6c-11.2,11.1-16.8,27.2-16.8,48.3
	c0,9.8,1.3,18.8,3.8,26.8c2.5,8,6.4,14.8,11.7,20.5c5.2,5.6,11.8,10,19.6,13.1c7.8,3.1,17,4.6,27.5,4.6c9.8,0,18.3-1.9,25.6-5.8
	c6.3-3.4,11.1-7.1,14.5-11l-7-9.5C481,217.5,480.2,218.1,479.2,218.7z"/>
<path class="st20" d="M691.7,126c-3.6,3.9-6.8,8.4-9.5,13.7h-1v-24h-42.6v11.9h17.6v101.1h-17.6v11.9h63.3v-11.9h-20.7v-74
	c2.7-4.8,5.2-8.4,7.6-10.9c2.4-2.5,5.4-4.8,9-6.7h29v-21.4H704C699.4,118.7,695.3,122.2,691.7,126z"/>
<polygon class="st20" points="891.5,115.7 849,115.7 849,127.6 866.6,127.6 866.6,228.7 849,228.7 849,240.6 909.1,240.6 
	909.1,228.7 891.5,228.7 "/>
<polygon class="st20" points="971.5,62.2 926.3,62.2 926.3,74.1 946.6,74.1 946.6,228.7 929,228.7 929,240.6 989.1,240.6 
	989.1,228.7 971.5,228.7 "/>
<path class="st20" d="M1198.9,225.1c-3.6,1.7-7.8,2.6-12.7,2.6c-5.7,0-9.8-2.1-12.4-6.2c-2.5-4.1-3.8-11.2-3.8-21.2v-72.8h39.5
	v-11.9H1170V86h-25v29.7h-13.7h-24.5h-21.2v11.9h14.5l-26.5,78.7l-4.5,18.3h-1.2l-4.8-18.1l-31.3-79h20v-11.9h-61.4v11.9h14l48,113
	h10.1l-8.5,26.2h-28v21.4h31.2l5.1-4.5l52.8-156h16h13.7v79.9c0,12.7,2.8,21.8,8.4,27.2c5.6,5.5,13.8,8.2,24.4,8.2
	c4.1,0,8.1-0.5,12-1.4c3.9-1,7.4-2.1,10.6-3.6c3.2-1.4,6-3,8.4-4.6c2.5-1.7,4.4-3.2,5.8-4.6l-5.9-9.3
	C1205.8,221.4,1202.5,223.3,1198.9,225.1z"/>
<path class="st20" d="M816.9,225.1c-3.6,1.7-7.8,2.6-12.7,2.6c-5.7,0-9.8-2.1-12.4-6.2c-2.5-4.1-3.8-11.2-3.8-21.2v-72.8h39.5v-11.9
	H788V86h-25v29.7h-21.2v11.9h21.2v79.9c0,12.7,2.8,21.8,8.4,27.2c5.6,5.5,13.8,8.2,24.4,8.2c4.1,0,8.1-0.5,12-1.4
	c3.9-1,7.4-2.1,10.6-3.6c3.2-1.4,6-3,8.4-4.6c2.5-1.7,4.4-3.2,5.8-4.6l-5.9-9.3C823.8,221.4,820.5,223.3,816.9,225.1z"/>
<polygon class="st20" points="1275.2,115.7 1232.6,115.7 1232.6,127.6 1250.2,127.6 1250.2,228.7 1232.6,228.7 1232.6,240.6 
	1292.8,240.6 1292.8,228.7 1275.2,228.7 "/>
<path class="st20" d="M1523.3,190.8c-3.2-4.4-7.1-8.4-11.9-11.8c-4.8-3.4-9.9-6.5-15.5-9.2c-5.6-2.7-10.7-5.4-15.5-8.2
	c-4.8-2.7-8.7-5.7-11.9-8.8c-3.2-3.1-4.8-6.8-4.8-11c0-4.4,1.9-8,5.6-10.9c3.7-2.9,9.4-4.3,17-4.3c2.7,0,5.2,0.2,7.6,0.5
	c2.4,0.3,4.6,0.7,6.7,1.2l4.5,5.1v17.7h15.2v-31.4c-2.9-1-5.7-1.8-8.4-2.6c-2.7-0.8-5.6-1.5-8.6-2c-3-0.6-6.4-1-10-1.3
	c-3.7-0.3-7.9-0.5-12.7-0.5c-5.7,0-11.2,0.8-16.3,2.3c-5.1,1.5-9.5,3.6-13.3,6.3c-3.7,2.7-6.7,5.9-9,9.6c-2.2,3.7-3.3,7.9-3.3,12.5
	c0,6.8,1.6,12.6,4.8,17.5c3.2,4.8,7.1,9,11.9,12.6c4.8,3.6,9.9,6.7,15.5,9.5c5.5,2.8,10.7,5.5,15.5,8.3c4.8,2.7,8.7,5.7,11.9,8.9
	c3.2,3.2,4.8,6.9,4.8,11.2c0,5.5-2.5,9.8-7.4,12.9c-4.9,3.1-11.2,4.7-18.8,4.7c-4.6,0-8.3-0.5-11.2-1.4c-2.9-0.9-5.3-2.2-7.4-3.7
	l-4.8-4.9v-18h-15.2v31.4c4.1,2.7,9.8,5,17.1,7c7.3,2,14.7,3,22.4,3c6.9,0,13.3-0.8,19.5-2.5c6.1-1.7,11.5-4,16-7.1
	c4.5-3.1,8.1-6.9,10.8-11.3c2.6-4.4,3.9-9.5,3.9-15.2C1528.1,200.6,1526.5,195.3,1523.3,190.8z"/>
<path class="st20" d="M1402.4,218.7c-1.7,1.1-3.7,2.1-6,3c-2.2,0.9-4.8,1.7-7.8,2.5c-2.9,0.8-6.3,1.2-10.1,1.2
	c-7.2,0-13.4-1.3-18.7-3.8c-5.3-2.5-9.7-6-13.2-10.3c-3.5-4.3-6.1-9.4-7.9-15.2c-1.8-5.8-2.6-11.8-2.6-18.1c0-9.6,0.8-17.7,2.4-24.4
	c1.6-6.6,4-11.9,7.2-15.9c3.2-3.9,7.1-6.8,11.7-8.5c4.6-1.7,10-2.6,16-2.6c7.2,0,11.9,0.7,14.3,2.1v22.4h21.4v-30.9
	c-4.8-2.4-10-4.1-15.7-5.2c-5.7-1.1-12.9-1.7-21.6-1.7c-19.2,0-34.4,5.6-45.5,16.6c-11.2,11.1-16.8,27.2-16.8,48.3
	c0,9.8,1.3,18.8,3.8,26.8c2.5,8,6.4,14.8,11.7,20.5c5.2,5.6,11.8,10,19.6,13.1c7.8,3.1,17,4.6,27.5,4.6c9.8,0,18.3-1.9,25.6-5.8
	c6.3-3.4,11.1-7.1,14.5-11l-7-9.5C1404.2,217.5,1403.3,218.1,1402.4,218.7z"/>
<path class="st20" d="M602.9,123.5c-4.8-3.6-10.2-6.3-16.4-7.8c-6.1-1.6-12.4-2.4-18.7-2.4c-19.3,0-34.3,6.8-44.1,16.6
	c-10.8,10.8-16.8,27-16.8,48.3c0,9.8,1.2,18.6,3.8,26.8c2.6,8.1,6.2,14.8,11.7,20.5c5.4,5.6,11.9,10.1,20,13.2
	c8,3.1,15.6,4.5,29.1,4.5c10,0,18.8-1.7,26.4-5.1c7.6-3.4,13.4-8,17.6-13.9l-6.5-9c-3.2,2.7-7.5,5.1-12.8,7.1
	c-5.4,2.1-11.2,3.1-17.4,3.1c-7.7,0-14.3-1.1-19.9-3.4c-5.6-2.3-10.3-5.5-14-9.6c-3.8-4.1-6.6-9-8.4-14.7c-1.8-5.7-2.8-12-2.8-19
	H617c0.6-3.3,1.1-6.5,1.4-9.5c0.3-3,0.5-5.9,0.5-8.6c0-8.9-1.5-16.3-4.4-22.4C611.6,132,607.7,127.2,602.9,123.5z M592.2,162.9
	c-0.1,1.5-0.2,3-0.4,4.4h-57.6c0-35.3,23.4-40.5,32.2-40.5c8.8,0,15.9,1.8,20.1,8c4.2,6.2,5.7,13.5,5.7,23.9
	C592.3,160,592.3,161.4,592.2,162.9z"/>
</svg>

<svg width="1618" height="349" viewBox="0 0 1618 349" fill="none" xmlns="http://www.w3.org/2000/svg">
<g id="full-cert-logo">
<path id="Vector" d="M190.6 136.3L261.9 178.7L267 170.1L200.3 130.5L267.1 90.4L261.9 81.9L188 126.2L114 170.6L116.6 174.9L114 179.2L188 223.1L188.1 222.9L261.9 266.7L267 258.1L193.1 214.2L193 214.4L126.4 174.9L190.6 136.3Z" fill="white"/>
<g id="Group">
<path id="Vector_2" d="M117.2 202.3C132.277 202.3 144.5 190.077 144.5 175C144.5 159.923 132.277 147.7 117.2 147.7C102.123 147.7 89.9 159.923 89.9 175C89.9 190.077 102.123 202.3 117.2 202.3Z" fill="white"/>
</g>
<g id="Group_2">
<path id="Vector_3" d="M190.5 245.8C205.577 245.8 217.8 233.577 217.8 218.5C217.8 203.423 205.577 191.2 190.5 191.2C175.423 191.2 163.2 203.423 163.2 218.5C163.2 233.577 175.423 245.8 190.5 245.8Z" fill="white"/>
</g>
<g id="Group_3">
<path id="Vector_4" d="M263.9 289.3C278.977 289.3 291.2 277.077 291.2 262C291.2 246.923 278.977 234.7 263.9 234.7C248.823 234.7 236.6 246.923 236.6 262C236.6 277.077 248.823 289.3 263.9 289.3Z" fill="white"/>
</g>
<g id="Group_4">
<path id="Vector_5" d="M190.5 157.8C205.577 157.8 217.8 145.577 217.8 130.5C217.8 115.423 205.577 103.2 190.5 103.2C175.423 103.2 163.2 115.423 163.2 130.5C163.2 145.577 175.423 157.8 190.5 157.8Z" fill="white"/>
</g>
<g id="Group_5">
<path id="Vector_6" d="M263.9 113.8C278.977 113.8 291.2 101.577 291.2 86.5C291.2 71.4226 278.977 59.2 263.9 59.2C248.823 59.2 236.6 71.4226 236.6 86.5C236.6 101.577 248.823 113.8 263.9 113.8Z" fill="white"/>
</g>
<g id="Group_6">
<path id="Vector_7" d="M264.7 201.8C279.777 201.8 292 189.577 292 174.5C292 159.423 279.777 147.2 264.7 147.2C249.623 147.2 237.4 159.423 237.4 174.5C237.4 189.577 249.623 201.8 264.7 201.8Z" fill="white"/>
</g>
<path id="Vector_8" d="M879 94.2C887.837 94.2 895 87.0366 895 78.2C895 69.3635 887.837 62.2 879 62.2C870.163 62.2 863 69.3635 863 78.2C863 87.0366 870.163 94.2 879 94.2Z" fill="white"/>
<path id="Vector_9" d="M1262.7 94.2C1271.54 94.2 1278.7 87.0366 1278.7 78.2C1278.7 69.3635 1271.54 62.2 1262.7 62.2C1253.86 62.2 1246.7 69.3635 1246.7 78.2C1246.7 87.0366 1253.86 94.2 1262.7 94.2Z" fill="white"/>
<path id="Vector_10" d="M479.2 218.7C477.4 219.8 475.5 220.8 473.2 221.7C471 222.6 468.4 223.4 465.4 224.2C462.5 225 459.1 225.4 455.3 225.4C448.1 225.4 441.9 224.1 436.6 221.6C431.3 219.1 426.9 215.6 423.4 211.3C419.9 207 417.3 201.9 415.5 196.1C413.8 190.3 412.9 184.3 412.9 178C412.9 168.4 413.7 160.3 415.3 153.6C416.9 147 419.3 141.7 422.5 137.7C425.7 133.8 429.6 130.9 434.2 129.2C438.8 127.5 444.2 126.6 450.2 126.6C457.4 126.6 462.1 127.3 464.5 128.7V151.1H485.9V120.2C481.1 117.8 475.9 116.1 470.2 115C464.5 113.9 457.3 113.3 448.6 113.3C429.4 113.3 414.2 118.9 403.1 129.9C391.9 141 386.3 157.1 386.3 178.2C386.3 188 387.6 197 390.1 205C392.6 213 396.5 219.8 401.8 225.5C407 231.1 413.6 235.5 421.4 238.6C429.2 241.7 438.4 243.2 448.9 243.2C458.7 243.2 467.2 241.3 474.5 237.4C480.8 234 485.6 230.3 489 226.4L482 216.9C481 217.5 480.2 218.1 479.2 218.7Z" fill="white"/>
<path id="Vector_11" d="M691.7 126C688.1 129.9 684.9 134.4 682.2 139.7H681.2V115.7H638.6V127.6H656.2V228.7H638.6V240.6H701.9V228.7H681.2V154.7C683.9 149.9 686.4 146.3 688.8 143.8C691.2 141.3 694.2 139 697.8 137.1H726.8V115.7H704C699.4 118.7 695.3 122.2 691.7 126Z" fill="white"/>
<path id="Vector_12" d="M891.5 115.7H849V127.6H866.6V228.7H849V240.6H909.1V228.7H891.5V115.7Z" fill="white"/>
<path id="Vector_13" d="M971.5 62.2H926.3V74.1H946.6V228.7H929V240.6H989.1V228.7H971.5V62.2Z" fill="white"/>
<path id="Vector_14" d="M1198.9 225.1C1195.3 226.8 1191.1 227.7 1186.2 227.7C1180.5 227.7 1176.4 225.6 1173.8 221.5C1171.3 217.4 1170 210.3 1170 200.3V127.5H1209.5V115.6H1170V86H1145V115.7H1131.3H1106.8H1085.6V127.6H1100.1L1073.6 206.3L1069.1 224.6H1067.9L1063.1 206.5L1031.8 127.5H1051.8V115.6H990.4V127.5H1004.4L1052.4 240.5H1062.5L1054 266.7H1026V288.1H1057.2L1062.3 283.6L1115.1 127.6H1131.1H1144.8V207.5C1144.8 220.2 1147.6 229.3 1153.2 234.7C1158.8 240.2 1167 242.9 1177.6 242.9C1181.7 242.9 1185.7 242.4 1189.6 241.5C1193.5 240.5 1197 239.4 1200.2 237.9C1203.4 236.5 1206.2 234.9 1208.6 233.3C1211.1 231.6 1213 230.1 1214.4 228.7L1208.5 219.4C1205.8 221.4 1202.5 223.3 1198.9 225.1Z" fill="white"/>
<path id="Vector_15" d="M816.9 225.1C813.3 226.8 809.1 227.7 804.2 227.7C798.5 227.7 794.4 225.6 791.8 221.5C789.3 217.4 788 210.3 788 200.3V127.5H827.5V115.6H788V86H763V115.7H741.8V127.6H763V207.5C763 220.2 765.8 229.3 771.4 234.7C777 240.2 785.2 242.9 795.8 242.9C799.9 242.9 803.9 242.4 807.8 241.5C811.7 240.5 815.2 239.4 818.4 237.9C821.6 236.5 824.4 234.9 826.8 233.3C829.3 231.6 831.2 230.1 832.6 228.7L826.7 219.4C823.8 221.4 820.5 223.3 816.9 225.1Z" fill="white"/>
<path id="Vector_16" d="M1275.2 115.7H1232.6V127.6H1250.2V228.7H1232.6V240.6H1292.8V228.7H1275.2V115.7Z" fill="white"/>
<path id="Vector_17" d="M1523.3 190.8C1520.1 186.4 1516.2 182.4 1511.4 179C1506.6 175.6 1501.5 172.5 1495.9 169.8C1490.3 167.1 1485.2 164.4 1480.4 161.6C1475.6 158.9 1471.7 155.9 1468.5 152.8C1465.3 149.7 1463.7 146 1463.7 141.8C1463.7 137.4 1465.6 133.8 1469.3 130.9C1473 128 1478.7 126.6 1486.3 126.6C1489 126.6 1491.5 126.8 1493.9 127.1C1496.3 127.4 1498.5 127.8 1500.6 128.3L1505.1 133.4V151.1H1520.3V119.7C1517.4 118.7 1514.6 117.9 1511.9 117.1C1509.2 116.3 1506.3 115.6 1503.3 115.1C1500.3 114.5 1496.9 114.1 1493.3 113.8C1489.6 113.5 1485.4 113.3 1480.6 113.3C1474.9 113.3 1469.4 114.1 1464.3 115.6C1459.2 117.1 1454.8 119.2 1451 121.9C1447.3 124.6 1444.3 127.8 1442 131.5C1439.8 135.2 1438.7 139.4 1438.7 144C1438.7 150.8 1440.3 156.6 1443.5 161.5C1446.7 166.3 1450.6 170.5 1455.4 174.1C1460.2 177.7 1465.3 180.8 1470.9 183.6C1476.4 186.4 1481.6 189.1 1486.4 191.9C1491.2 194.6 1495.1 197.6 1498.3 200.8C1501.5 204 1503.1 207.7 1503.1 212C1503.1 217.5 1500.6 221.8 1495.7 224.9C1490.8 228 1484.5 229.6 1476.9 229.6C1472.3 229.6 1468.6 229.1 1465.7 228.2C1462.8 227.3 1460.4 226 1458.3 224.5L1453.5 219.6V201.6H1438.3V233C1442.4 235.7 1448.1 238 1455.4 240C1462.7 242 1470.1 243 1477.8 243C1484.7 243 1491.1 242.2 1497.3 240.5C1503.4 238.8 1508.8 236.5 1513.3 233.4C1517.8 230.3 1521.4 226.5 1524.1 222.1C1526.7 217.7 1528 212.6 1528 206.9C1528.1 200.6 1526.5 195.3 1523.3 190.8Z" fill="white"/>
<path id="Vector_18" d="M1402.4 218.7C1400.7 219.8 1398.7 220.8 1396.4 221.7C1394.2 222.6 1391.6 223.4 1388.6 224.2C1385.7 225 1382.3 225.4 1378.5 225.4C1371.3 225.4 1365.1 224.1 1359.8 221.6C1354.5 219.1 1350.1 215.6 1346.6 211.3C1343.1 207 1340.5 201.9 1338.7 196.1C1336.9 190.3 1336.1 184.3 1336.1 178C1336.1 168.4 1336.9 160.3 1338.5 153.6C1340.1 147 1342.5 141.7 1345.7 137.7C1348.9 133.8 1352.8 130.9 1357.4 129.2C1362 127.5 1367.4 126.6 1373.4 126.6C1380.6 126.6 1385.3 127.3 1387.7 128.7V151.1H1409.1V120.2C1404.3 117.8 1399.1 116.1 1393.4 115C1387.7 113.9 1380.5 113.3 1371.8 113.3C1352.6 113.3 1337.4 118.9 1326.3 129.9C1315.1 141 1309.5 157.1 1309.5 178.2C1309.5 188 1310.8 197 1313.3 205C1315.8 213 1319.7 219.8 1325 225.5C1330.2 231.1 1336.8 235.5 1344.6 238.6C1352.4 241.7 1361.6 243.2 1372.1 243.2C1381.9 243.2 1390.4 241.3 1397.7 237.4C1404 234 1408.8 230.3 1412.2 226.4L1405.2 216.9C1404.2 217.5 1403.3 218.1 1402.4 218.7Z" fill="white"/>
<path id="Vector_19" d="M602.9 123.5C598.1 119.9 592.7 117.2 586.5 115.7C580.4 114.1 574.1 113.3 567.8 113.3C548.5 113.3 533.5 120.1 523.7 129.9C512.9 140.7 506.9 156.9 506.9 178.2C506.9 188 508.1 196.8 510.7 205C513.3 213.1 516.9 219.8 522.4 225.5C527.8 231.1 534.3 235.6 542.4 238.7C550.4 241.8 558 243.2 571.5 243.2C581.5 243.2 590.3 241.5 597.9 238.1C605.5 234.7 611.3 230.1 615.5 224.2L609 215.2C605.8 217.9 601.5 220.3 596.2 222.3C590.8 224.4 585 225.4 578.8 225.4C571.1 225.4 564.5 224.3 558.9 222C553.3 219.7 548.6 216.5 544.9 212.4C541.1 208.3 538.3 203.4 536.5 197.7C534.7 192 533.7 185.7 533.7 178.7H617C617.6 175.4 618.1 172.2 618.4 169.2C618.7 166.2 618.9 163.3 618.9 160.6C618.9 151.7 617.4 144.3 614.5 138.2C611.6 132 607.7 127.2 602.9 123.5ZM592.2 162.9C592.1 164.4 592 165.9 591.8 167.3H534.2C534.2 132 557.6 126.8 566.4 126.8C575.2 126.8 582.3 128.6 586.5 134.8C590.7 141 592.2 148.3 592.2 158.7C592.3 160 592.3 161.4 592.2 162.9Z" fill="white"/>
</g>
</svg>
